Newaita-dark/apps/24/com.github.cassidyjames.clairvoyant.svg

<svg height="24" viewBox="0 0 24 24" width="24" xmlns="http://www.w3.org/2000/svg" xmlns:xlink="http://www.w3.org/1999/xlink"><linearGradient id="a"><stop offset="0" stop-opacity=".313726"/><stop offset=".222222" stop-opacity=".27451"/><stop offset="1" stop-opacity="0"/></linearGradient><radialGradient id="b" cx="450.908936" cy="189.579361" gradientTransform="matrix(.00000013 -.0585994 -.105479 -.00000008 33.392364 47.696497)" gradientUnits="userSpaceOnUse" r="21.166656" xlink:href="#a"/><radialGradient id="c" cx="450.908936" cy="189.579361" gradientTransform="matrix(-.00000013 .0585994 .105479 .00000008 -9.577589 -5.645612)" gradientUnits="userSpaceOnUse" r="21.166656" xlink:href="#a"/><radialGradient id="d" cx="450.908936" cy="189.579361" gradientTransform="matrix(-.00000013 -.0585994 .105479 -.00000008 -9.577589 47.696497)" gradientUnits="userSpaceOnUse" r="21.166656" xlink:href="#a"/><radialGradient id="e" cx="450.908936" cy="189.579361" gradientTransform="matrix(.00000013 .0585994 -.105479 .00000008 33.392362 -5.645612)" gradientUnits="userSpaceOnUse" r="21.166656" xlink:href="#a"/><linearGradient id="f" gradientTransform="matrix(.01002 0 0 .0468795 9.34904 10.079088)" gradientUnits="userSpaceOnUse" x1="255.323059" x2="255.323044" y1="233.5" y2="254.666656"><stop offset="0" stop-opacity=".27451"/><stop offset="1" stop-opacity="0"/></linearGradient><linearGradient id="g" gradientUnits="userSpaceOnUse" x1="11.907393" x2="11.907393" y1="2.17207774998" y2="21.02545025"><stop offset="0" stop-color="#90a4ae"/><stop offset="1" stop-color="#546e7a"/></linearGradient><linearGradient id="h" gradientTransform="matrix(.0468795 0 0 -.0468795 0 10.079087)" gradientUnits="userSpaceOnUse" x1="254" x2="254" y1="-170" y2="105.166656"><stop offset="0" stop-color="#bdbdbd"/><stop offset="1" stop-color="#e0e0e0"/></linearGradient><linearGradient id="i" gradientUnits="userSpaceOnUse" x1="11.90736" x2="11.90736" y1="5.14891739056" y2="18.04855814717"><stop offset="0" stop-color="#616161"/><stop offset="1" stop-color="#424242"/></linearGradient><path d="m13.644531 21.027344h1.984375v-.996094h-1.984375zm0 0" fill="url(#b)"/><path d="m10.171875 21.027344h-1.984375v.992187h1.984375zm0 0" fill="url(#c)"/><path d="m10.171875 21.027344h-1.984375v-.996094h1.984375zm0 0" fill="url(#d)"/><path d="m13.644531 21.027344h1.984375v.992187h-1.984375zm0 0" fill="url(#e)"/><path d="m10.171875 20.777344h3.472656v1.242187h-3.472656zm0 0" fill="url(#f)"/><path d="m11.90625 2.171875c5.207031 0 9.429688 4.21875 9.429688 9.425781 0 5.207032-4.222657 9.429688-9.429688 9.429688-5.203125 0-9.425781-4.222656-9.425781-9.429688 0-5.207031 4.222656-9.425781 9.425781-9.425781zm0 0" fill="url(#g)"/><path d="m11.90625 21.027344c-5.222656 0-9.425781-4.207032-9.425781-9.429688 0-.03125 0-.058594 0-.089844.050781 5.179688 4.234375 9.332032 9.425781 9.332032s9.378906-4.152344 9.425781-9.332032c0 .03125.003907.058594.003907.089844 0 5.222656-4.207032 9.429688-9.429688 9.429688zm0 0" fill-opacity=".196078"/><path d="m11.90625 2.171875c-5.222656 0-9.425781 4.203125-9.425781 9.425781v.09375c.050781-5.179687 4.234375-9.335937 9.425781-9.335937s9.378906 4.15625 9.425781 9.335937c0-.03125.003907-.0625.003907-.09375 0-5.222656-4.207032-9.425781-9.429688-9.425781zm0 0" fill="#fff" fill-opacity=".392157"/><path d="m11.90625 2.101562c-5.257812 0-9.496094 4.238282-9.496094 9.496094 0 5.261719 4.238282 9.5 9.496094 9.5 5.261719 0 9.5-4.238281 9.5-9.5 0-5.257812-4.238281-9.496094-9.5-9.496094zm0 .140626c5.1875 0 9.359375 4.171874 9.359375 9.355468 0 5.1875-4.171875 9.359375-9.359375 9.359375-5.183594 0-9.355469-4.171875-9.355469-9.359375 0-5.183594 4.171875-9.355468 9.355469-9.355468zm0 0" fill="#212121"/><path d="m11.90625 18.046875c3.5625 0 6.449219-2.886719 6.449219-6.449219s-2.886719-6.449218-6.449219-6.449218-6.449219 2.886718-6.449219 6.449218 2.886719 6.449219 6.449219 6.449219zm0 0" fill="url(#h)"/><path d="m11.90625 5.148438c-3.570312 0-6.449219 2.878906-6.449219 6.449218 0 .085938.003907.167969.003907.25.128906-3.457031 2.957031-6.203125 6.445312-6.203125 3.492188 0 6.316406 2.746094 6.445312 6.203125.003907-.082031.003907-.164062.003907-.25 0-3.570312-2.875-6.449218-6.449219-6.449218zm0 0" fill-opacity=".235294"/><path d="m5.460938 11.847656c0 .082032-.003907.164063-.003907.246094 0 3.574219 2.878907 6.449219 6.449219 6.449219 3.574219 0 6.449219-2.875 6.449219-6.449219 0-.082031 0-.164062-.003907-.246094-.128906 3.457032-2.953124 6.199219-6.445312 6.199219-3.488281 0-6.316406-2.742187-6.445312-6.199219zm0 0" fill="#fff" fill-opacity=".392157"/><path d="m253.975747-169.963238c75.992743 0 137.570196 61.577453 137.570196 137.570196s-61.577453 137.570196-137.570196 137.570196c-75.992744 0-137.570197-61.577453-137.570197-137.570196s61.577453-137.570196 137.570197-137.570196zm0 0" fill="none" stroke="#212121" stroke-linecap="round" stroke-width="3" transform="matrix(.0468795 0 0 -.0468795 0 10.079087)"/><path d="m10.914062 7.628906c-.824218 0-1.488281.664063-1.488281 1.488282v.992187c0 .519531.265625.976563.664063 1.242187-.398438.265626-.664063.71875-.664063 1.238282v1.488281c0 .824219.664063 1.488281 1.488281 1.488281h1.984376c.824218 0 1.488281-.664062 1.488281-1.488281v-1.488281c0-.519532-.261719-.972656-.660157-1.238282.398438-.265624.660157-.722656.660157-1.242187v-.992187c0-.824219-.664063-1.488282-1.488281-1.488282zm.25.992188h1.488282c.410156 0 .742187.332031.742187.746094v.742187c0 .414063-.332031.746094-.742187.746094h-1.488282c-.414062 0-.746093-.332031-.746093-.746094v-.742187c0-.414063.332031-.746094.746093-.746094zm0 3.226562h1.488282c.410156 0 .742187.332032.742187.742188v1.242187c0 .410157-.332031.742188-.742187.742188h-1.488282c-.414062 0-.746093-.332031-.746093-.742188v-1.242187c0-.410156.332031-.742188.746093-.742188zm0 0" fill="url(#i)"/><path d="m10.914062 7.628906c-.824218 0-1.488281.664063-1.488281 1.488282v.25c0-.824219.664063-1.488282 1.488281-1.488282h1.984376c.824218 0 1.488281.664063 1.488281 1.488282v-.25c0-.824219-.664063-1.488282-1.488281-1.488282zm-.496093 2.480469v.25c0 .410156.332031.742187.746093.742187h1.488282c.410156 0 .742187-.332031.742187-.742187v-.25c0 .414063-.332031.746094-.742187.746094h-1.488282c-.414062 0-.746093-.332031-.746093-.746094zm-.488281 1.367187c-.308594.269532-.503907.667969-.503907 1.113282v.25c0-.519532.265625-.976563.664063-1.242188-.054688-.035156-.109375-.078125-.160156-.121094zm3.957031 0c-.050781.042969-.105469.085938-.160157.121094.398438.265625.660157.722656.660157 1.242188v-.25c0-.445313-.191407-.84375-.5-1.113282zm-3.46875 2.355469v.246094c0 .414063.332031.746094.746093.746094h1.488282c.410156 0 .742187-.332031.742187-.746094v-.246094c0 .410157-.332031.742188-.742187.742188h-1.488282c-.414062 0-.746093-.332031-.746093-.742188zm0 0" fill="#fff" fill-opacity=".313726"/><path d="m11.164062 8.621094c-.414062 0-.746093.332031-.746093.746094v.371093c0-.414062.332031-.746093.746093-.746093h1.488282c.410156 0 .742187.332031.742187.746093v-.371093c0-.414063-.332031-.746094-.742187-.746094zm-1.738281 1.488281v.375c0 .410156.167969.785156.4375 1.050781.070313-.066406.144531-.128906.226563-.183594-.398438-.265624-.664063-.722656-.664063-1.242187zm4.960938 0c0 .519531-.261719.976563-.660157 1.242187.078126.054688.15625.117188.226563.183594.269531-.265625.433594-.640625.433594-1.050781zm-3.222657 1.738281c-.414062 0-.746093.332032-.746093.742188v.375c0-.414063.332031-.746094.746093-.746094h1.488282c.410156 0 .742187.332031.742187.746094v-.375c0-.410156-.332031-.742188-.742187-.742188zm-1.738281 2.230469v.375c0 .824219.664063 1.488281 1.488281 1.488281h1.984376c.824218 0 1.488281-.664062 1.488281-1.488281v-.375c0 .824219-.664063 1.488281-1.488281 1.488281h-1.984376c-.824218 0-1.488281-.664062-1.488281-1.488281zm0 0" fill-opacity=".235294"/><path d="m879.916018 615.059407c-66.45035 0-119.988547 53.538198-119.988547 119.988548v79.992366c0 41.885766 21.415278 78.732643 53.538197 100.147922-32.122919 21.415278-53.538197 57.947225-53.538197 99.832991v119.988548c0 66.450351 53.538197 119.988548 119.988547 119.988548h159.984731c66.450351 0 119.988548-53.538197 119.988548-119.988548v-119.988548c0-41.885766-21.100348-78.417713-53.223267-99.832991 32.122919-21.415279 53.223267-58.262156 53.223267-100.147922v-79.992366c0-66.45035-53.538197-119.988548-119.988548-119.988548zm20.155557 79.992366h119.988548c33.06771 0 59.836809 26.769098 59.836809 60.151739v59.836809c0 33.38264-26.769099 60.151739-59.836809 60.151739h-119.988548c-33.382641 0-60.151739-26.769099-60.151739-60.151739v-59.836809c0-33.382641 26.769098-60.151739 60.151739-60.151739zm0 260.132652h119.988548c33.06771 0 59.836809 26.769099 59.836809 59.836809v100.147922c0 33.06771-26.769099 59.836809-59.836809 59.836809h-119.988548c-33.382641 0-60.151739-26.769099-60.151739-59.836809v-100.147922c0-33.06771 26.769098-59.836809 60.151739-59.836809zm0 0" fill="none" stroke="#212121" stroke-linecap="round" stroke-linejoin="round" stroke-width="11.338583" transform="scale(.0124035)"/></svg>

<?xml version="1.0" encoding="UTF-8"?>
<svg xmlns="http://www.w3.org/2000/svg" xmlns:xlink="http://www.w3.org/1999/xlink" width="24px" height="24px" viewBox="0 0 24 24" version="1.1">
<defs>
<radialGradient id="radial0" gradientUnits="userSpaceOnUse" cx="450.908936" cy="189.579361" fx="450.908936" fy="189.579361" r="21.166656" gradientTransform="matrix(0.000000130628,-0.0585994,-0.105479,-0.0000000761539,33.392364,47.696497)">
<stop offset="0" style="stop-color:rgb(0%,0%,0%);stop-opacity:0.313726;"/>
<stop offset="0.222222" style="stop-color:rgb(0%,0%,0%);stop-opacity:0.27451;"/>
<stop offset="1" style="stop-color:rgb(0%,0%,0%);stop-opacity:0;"/>
</radialGradient>
<radialGradient id="radial1" gradientUnits="userSpaceOnUse" cx="450.908936" cy="189.579361" fx="450.908936" fy="189.579361" r="21.166656" gradientTransform="matrix(-0.000000130628,0.0585994,0.105479,0.0000000761539,-9.577589,-5.645612)">
<stop offset="0" style="stop-color:rgb(0%,0%,0%);stop-opacity:0.313726;"/>
<stop offset="0.222222" style="stop-color:rgb(0%,0%,0%);stop-opacity:0.27451;"/>
<stop offset="1" style="stop-color:rgb(0%,0%,0%);stop-opacity:0;"/>
</radialGradient>
<radialGradient id="radial2" gradientUnits="userSpaceOnUse" cx="450.908936" cy="189.579361" fx="450.908936" fy="189.579361" r="21.166656" gradientTransform="matrix(-0.000000130628,-0.0585994,0.105479,-0.0000000761539,-9.577589,47.696497)">
<stop offset="0" style="stop-color:rgb(0%,0%,0%);stop-opacity:0.313726;"/>
<stop offset="0.222222" style="stop-color:rgb(0%,0%,0%);stop-opacity:0.27451;"/>
<stop offset="1" style="stop-color:rgb(0%,0%,0%);stop-opacity:0;"/>
</radialGradient>
<radialGradient id="radial3" gradientUnits="userSpaceOnUse" cx="450.908936" cy="189.579361" fx="450.908936" fy="189.579361" r="21.166656" gradientTransform="matrix(0.000000130628,0.0585994,-0.105479,0.0000000761539,33.392362,-5.645612)">
<stop offset="0" style="stop-color:rgb(0%,0%,0%);stop-opacity:0.313726;"/>
<stop offset="0.222222" style="stop-color:rgb(0%,0%,0%);stop-opacity:0.27451;"/>
<stop offset="1" style="stop-color:rgb(0%,0%,0%);stop-opacity:0;"/>
</radialGradient>
<linearGradient id="linear0" gradientUnits="userSpaceOnUse" x1="255.323059" y1="233.5" x2="255.323044" y2="254.666656" gradientTransform="matrix(0.01002,0,0,0.0468795,9.34904,10.079088)">
<stop offset="0" style="stop-color:rgb(0%,0%,0%);stop-opacity:0.27451;"/>
<stop offset="1" style="stop-color:rgb(0%,0%,0%);stop-opacity:0;"/>
</linearGradient>
<linearGradient id="linear1" gradientUnits="userSpaceOnUse" x1="254" y1="-168.666672" x2="254" y2="233.5" gradientTransform="matrix(0.0468795,0,0,0.0468795,0,10.079087)">
<stop offset="0" style="stop-color:rgb(56.470591%,64.313728%,68.235296%);stop-opacity:1;"/>
<stop offset="1" style="stop-color:rgb(32.941177%,43.137255%,47.843137%);stop-opacity:1;"/>
</linearGradient>
<linearGradient id="linear2" gradientUnits="userSpaceOnUse" x1="254" y1="-170" x2="254" y2="105.166656" gradientTransform="matrix(0.0468795,0,0,-0.0468795,0,10.079087)">
<stop offset="0" style="stop-color:rgb(74.117649%,74.117649%,74.117649%);stop-opacity:1;"/>
<stop offset="1" style="stop-color:rgb(87.843138%,87.843138%,87.843138%);stop-opacity:1;"/>
</linearGradient>
<linearGradient id="linear3" gradientUnits="userSpaceOnUse" x1="960" y1="415.118103" x2="960" y2="1455.118164" gradientTransform="matrix(0.0124035,0,0,0.0124035,0,0.00000000000000141)">
<stop offset="0" style="stop-color:rgb(38.039216%,38.039216%,38.039216%);stop-opacity:1;"/>
<stop offset="1" style="stop-color:rgb(25.882354%,25.882354%,25.882354%);stop-opacity:1;"/>
</linearGradient>
</defs>
<g id="surface1">
<path style=" stroke:none;fill-rule:nonzero;fill:url(#radial0);" d="M 13.644531 21.027344 L 15.628906 21.027344 L 15.628906 20.03125 L 13.644531 20.03125 Z M 13.644531 21.027344 "/>
<path style=" stroke:none;fill-rule:nonzero;fill:url(#radial1);" d="M 10.171875 21.027344 L 8.1875 21.027344 L 8.1875 22.019531 L 10.171875 22.019531 Z M 10.171875 21.027344 "/>
<path style=" stroke:none;fill-rule:nonzero;fill:url(#radial2);" d="M 10.171875 21.027344 L 8.1875 21.027344 L 8.1875 20.03125 L 10.171875 20.03125 Z M 10.171875 21.027344 "/>
<path style=" stroke:none;fill-rule:nonzero;fill:url(#radial3);" d="M 13.644531 21.027344 L 15.628906 21.027344 L 15.628906 22.019531 L 13.644531 22.019531 Z M 13.644531 21.027344 "/>
<path style=" stroke:none;fill-rule:nonzero;fill:url(#linear0);" d="M 10.171875 20.777344 L 13.644531 20.777344 L 13.644531 22.019531 L 10.171875 22.019531 Z M 10.171875 20.777344 "/>
<path style=" stroke:none;fill-rule:nonzero;fill:url(#linear1);" d="M 11.90625 2.171875 C 17.113281 2.171875 21.335938 6.390625 21.335938 11.597656 C 21.335938 16.804688 17.113281 21.027344 11.90625 21.027344 C 6.703125 21.027344 2.480469 16.804688 2.480469 11.597656 C 2.480469 6.390625 6.703125 2.171875 11.90625 2.171875 Z M 11.90625 2.171875 "/>
<path style=" stroke:none;fill-rule:nonzero;fill:rgb(0%,0%,0%);fill-opacity:0.196078;" d="M 11.90625 21.027344 C 6.683594 21.027344 2.480469 16.820312 2.480469 11.597656 C 2.480469 11.566406 2.480469 11.539062 2.480469 11.507812 C 2.53125 16.6875 6.714844 20.839844 11.90625 20.839844 C 17.097656 20.839844 21.285156 16.6875 21.332031 11.507812 C 21.332031 11.539062 21.335938 11.566406 21.335938 11.597656 C 21.335938 16.820312 17.128906 21.027344 11.90625 21.027344 Z M 11.90625 21.027344 "/>
<path style=" stroke:none;fill-rule:nonzero;fill:rgb(100%,100%,100%);fill-opacity:0.392157;" d="M 11.90625 2.171875 C 6.683594 2.171875 2.480469 6.375 2.480469 11.597656 C 2.480469 11.628906 2.480469 11.660156 2.480469 11.691406 C 2.53125 6.511719 6.714844 2.355469 11.90625 2.355469 C 17.097656 2.355469 21.285156 6.511719 21.332031 11.691406 C 21.332031 11.660156 21.335938 11.628906 21.335938 11.597656 C 21.335938 6.375 17.128906 2.171875 11.90625 2.171875 Z M 11.90625 2.171875 "/>
<path style=" stroke:none;fill-rule:nonzero;fill:rgb(12.941177%,12.941177%,12.941177%);fill-opacity:1;" d="M 11.90625 2.101562 C 6.648438 2.101562 2.410156 6.339844 2.410156 11.597656 C 2.410156 16.859375 6.648438 21.097656 11.90625 21.097656 C 17.167969 21.097656 21.40625 16.859375 21.40625 11.597656 C 21.40625 6.339844 17.167969 2.101562 11.90625 2.101562 Z M 11.90625 2.242188 C 17.09375 2.242188 21.265625 6.414062 21.265625 11.597656 C 21.265625 16.785156 17.09375 20.957031 11.90625 20.957031 C 6.722656 20.957031 2.550781 16.785156 2.550781 11.597656 C 2.550781 6.414062 6.722656 2.242188 11.90625 2.242188 Z M 11.90625 2.242188 "/>
<path style=" stroke:none;fill-rule:nonzero;fill:url(#linear2);" d="M 11.90625 18.046875 C 15.46875 18.046875 18.355469 15.160156 18.355469 11.597656 C 18.355469 8.035156 15.46875 5.148438 11.90625 5.148438 C 8.34375 5.148438 5.457031 8.035156 5.457031 11.597656 C 5.457031 15.160156 8.34375 18.046875 11.90625 18.046875 Z M 11.90625 18.046875 "/>
<path style=" stroke:none;fill-rule:nonzero;fill:rgb(0%,0%,0%);fill-opacity:0.235294;" d="M 11.90625 5.148438 C 8.335938 5.148438 5.457031 8.027344 5.457031 11.597656 C 5.457031 11.683594 5.460938 11.765625 5.460938 11.847656 C 5.589844 8.390625 8.417969 5.644531 11.90625 5.644531 C 15.398438 5.644531 18.222656 8.390625 18.351562 11.847656 C 18.355469 11.765625 18.355469 11.683594 18.355469 11.597656 C 18.355469 8.027344 15.480469 5.148438 11.90625 5.148438 Z M 11.90625 5.148438 "/>
<path style=" stroke:none;fill-rule:nonzero;fill:rgb(100%,100%,100%);fill-opacity:0.392157;" d="M 5.460938 11.847656 C 5.460938 11.929688 5.457031 12.011719 5.457031 12.09375 C 5.457031 15.667969 8.335938 18.542969 11.90625 18.542969 C 15.480469 18.542969 18.355469 15.667969 18.355469 12.09375 C 18.355469 12.011719 18.355469 11.929688 18.351562 11.847656 C 18.222656 15.304688 15.398438 18.046875 11.90625 18.046875 C 8.417969 18.046875 5.589844 15.304688 5.460938 11.847656 Z M 5.460938 11.847656 "/>
<path style="fill:none;stroke-width:3;stroke-linecap:round;stroke-linejoin:miter;stroke:rgb(12.941177%,12.941177%,12.941177%);stroke-opacity:1;stroke-miterlimit:4;" d="M 253.975747 -169.963238 C 329.96849 -169.963238 391.545943 -108.385785 391.545943 -32.393042 C 391.545943 43.599701 329.96849 105.177154 253.975747 105.177154 C 177.983003 105.177154 116.40555 43.599701 116.40555 -32.393042 C 116.40555 -108.385785 177.983003 -169.963238 253.975747 -169.963238 Z M 253.975747 -169.963238 " transform="matrix(0.0468795,0,0,-0.0468795,0,10.079087)"/>
<path style=" stroke:none;fill-rule:nonzero;fill:url(#linear3);" d="M 10.914062 7.628906 C 10.089844 7.628906 9.425781 8.292969 9.425781 9.117188 L 9.425781 10.109375 C 9.425781 10.628906 9.691406 11.085938 10.089844 11.351562 C 9.691406 11.617188 9.425781 12.070312 9.425781 12.589844 L 9.425781 14.078125 C 9.425781 14.902344 10.089844 15.566406 10.914062 15.566406 L 12.898438 15.566406 C 13.722656 15.566406 14.386719 14.902344 14.386719 14.078125 L 14.386719 12.589844 C 14.386719 12.070312 14.125 11.617188 13.726562 11.351562 C 14.125 11.085938 14.386719 10.628906 14.386719 10.109375 L 14.386719 9.117188 C 14.386719 8.292969 13.722656 7.628906 12.898438 7.628906 Z M 11.164062 8.621094 L 12.652344 8.621094 C 13.0625 8.621094 13.394531 8.953125 13.394531 9.367188 L 13.394531 10.109375 C 13.394531 10.523438 13.0625 10.855469 12.652344 10.855469 L 11.164062 10.855469 C 10.75 10.855469 10.417969 10.523438 10.417969 10.109375 L 10.417969 9.367188 C 10.417969 8.953125 10.75 8.621094 11.164062 8.621094 Z M 11.164062 11.847656 L 12.652344 11.847656 C 13.0625 11.847656 13.394531 12.179688 13.394531 12.589844 L 13.394531 13.832031 C 13.394531 14.242188 13.0625 14.574219 12.652344 14.574219 L 11.164062 14.574219 C 10.75 14.574219 10.417969 14.242188 10.417969 13.832031 L 10.417969 12.589844 C 10.417969 12.179688 10.75 11.847656 11.164062 11.847656 Z M 11.164062 11.847656 "/>
<path style=" stroke:none;fill-rule:nonzero;fill:rgb(100%,100%,100%);fill-opacity:0.313726;" d="M 10.914062 7.628906 C 10.089844 7.628906 9.425781 8.292969 9.425781 9.117188 L 9.425781 9.367188 C 9.425781 8.542969 10.089844 7.878906 10.914062 7.878906 L 12.898438 7.878906 C 13.722656 7.878906 14.386719 8.542969 14.386719 9.367188 L 14.386719 9.117188 C 14.386719 8.292969 13.722656 7.628906 12.898438 7.628906 Z M 10.417969 10.109375 L 10.417969 10.359375 C 10.417969 10.769531 10.75 11.101562 11.164062 11.101562 L 12.652344 11.101562 C 13.0625 11.101562 13.394531 10.769531 13.394531 10.359375 L 13.394531 10.109375 C 13.394531 10.523438 13.0625 10.855469 12.652344 10.855469 L 11.164062 10.855469 C 10.75 10.855469 10.417969 10.523438 10.417969 10.109375 Z M 9.929688 11.476562 C 9.621094 11.746094 9.425781 12.144531 9.425781 12.589844 L 9.425781 12.839844 C 9.425781 12.320312 9.691406 11.863281 10.089844 11.597656 C 10.035156 11.5625 9.980469 11.519531 9.929688 11.476562 Z M 13.886719 11.476562 C 13.835938 11.519531 13.78125 11.5625 13.726562 11.597656 C 14.125 11.863281 14.386719 12.320312 14.386719 12.839844 L 14.386719 12.589844 C 14.386719 12.144531 14.195312 11.746094 13.886719 11.476562 Z M 10.417969 13.832031 L 10.417969 14.078125 C 10.417969 14.492188 10.75 14.824219 11.164062 14.824219 L 12.652344 14.824219 C 13.0625 14.824219 13.394531 14.492188 13.394531 14.078125 L 13.394531 13.832031 C 13.394531 14.242188 13.0625 14.574219 12.652344 14.574219 L 11.164062 14.574219 C 10.75 14.574219 10.417969 14.242188 10.417969 13.832031 Z M 10.417969 13.832031 "/>
<path style=" stroke:none;fill-rule:nonzero;fill:rgb(0%,0%,0%);fill-opacity:0.235294;" d="M 11.164062 8.621094 C 10.75 8.621094 10.417969 8.953125 10.417969 9.367188 L 10.417969 9.738281 C 10.417969 9.324219 10.75 8.992188 11.164062 8.992188 L 12.652344 8.992188 C 13.0625 8.992188 13.394531 9.324219 13.394531 9.738281 L 13.394531 9.367188 C 13.394531 8.953125 13.0625 8.621094 12.652344 8.621094 Z M 9.425781 10.109375 L 9.425781 10.484375 C 9.425781 10.894531 9.59375 11.269531 9.863281 11.535156 C 9.933594 11.46875 10.007812 11.40625 10.089844 11.351562 C 9.691406 11.085938 9.425781 10.628906 9.425781 10.109375 Z M 14.386719 10.109375 C 14.386719 10.628906 14.125 11.085938 13.726562 11.351562 C 13.804688 11.40625 13.882812 11.46875 13.953125 11.535156 C 14.222656 11.269531 14.386719 10.894531 14.386719 10.484375 Z M 11.164062 11.847656 C 10.75 11.847656 10.417969 12.179688 10.417969 12.589844 L 10.417969 12.964844 C 10.417969 12.550781 10.75 12.21875 11.164062 12.21875 L 12.652344 12.21875 C 13.0625 12.21875 13.394531 12.550781 13.394531 12.964844 L 13.394531 12.589844 C 13.394531 12.179688 13.0625 11.847656 12.652344 11.847656 Z M 9.425781 14.078125 L 9.425781 14.453125 C 9.425781 15.277344 10.089844 15.941406 10.914062 15.941406 L 12.898438 15.941406 C 13.722656 15.941406 14.386719 15.277344 14.386719 14.453125 L 14.386719 14.078125 C 14.386719 14.902344 13.722656 15.566406 12.898438 15.566406 L 10.914062 15.566406 C 10.089844 15.566406 9.425781 14.902344 9.425781 14.078125 Z M 9.425781 14.078125 "/>
<path style="fill:none;stroke-width:11.338583;stroke-linecap:round;stroke-linejoin:round;stroke:rgb(12.941177%,12.941177%,12.941177%);stroke-opacity:1;stroke-miterlimit:4;" d="M 879.916018 615.059407 C 813.465668 615.059407 759.927471 668.597605 759.927471 735.047955 L 759.927471 815.040321 C 759.927471 856.926087 781.342749 893.772964 813.465668 915.188243 C 781.342749 936.603521 759.927471 973.135468 759.927471 1015.021234 L 759.927471 1135.009782 C 759.927471 1201.460133 813.465668 1254.99833 879.916018 1254.99833 L 1039.900749 1254.99833 C 1106.3511 1254.99833 1159.889297 1201.460133 1159.889297 1135.009782 L 1159.889297 1015.021234 C 1159.889297 973.135468 1138.788949 936.603521 1106.66603 915.188243 C 1138.788949 893.772964 1159.889297 856.926087 1159.889297 815.040321 L 1159.889297 735.047955 C 1159.889297 668.597605 1106.3511 615.059407 1039.900749 615.059407 Z M 900.071575 695.051773 L 1020.060123 695.051773 C 1053.127833 695.051773 1079.896932 721.820871 1079.896932 755.203512 L 1079.896932 815.040321 C 1079.896932 848.422961 1053.127833 875.19206 1020.060123 875.19206 L 900.071575 875.19206 C 866.688934 875.19206 839.919836 848.422961 839.919836 815.040321 L 839.919836 755.203512 C 839.919836 721.820871 866.688934 695.051773 900.071575 695.051773 Z M 900.071575 955.184425 L 1020.060123 955.184425 C 1053.127833 955.184425 1079.896932 981.953524 1079.896932 1015.021234 L 1079.896932 1115.169156 C 1079.896932 1148.236866 1053.127833 1175.005965 1020.060123 1175.005965 L 900.071575 1175.005965 C 866.688934 1175.005965 839.919836 1148.236866 839.919836 1115.169156 L 839.919836 1015.021234 C 839.919836 981.953524 866.688934 955.184425 900.071575 955.184425 Z M 900.071575 955.184425 " transform="matrix(0.0124035,0,0,0.0124035,0,0)"/>
</g>
</svg>
